public/icons/enhance.svg

<?xml version="1.0" encoding="UTF-8"?><svg width="32px" height="32px" viewBox="0 0 24 24" stroke-width="5" fill="none" xmlns="http://www.w3.org/2000/svg" color="#000000"><path d="M3 21L13 11M18 6L15.5 8.5" stroke="#000000" stroke-width="1.75" stroke-linecap="round" stroke-linejoin="round"></path><path d="M9.5 2L10.4453 4.55468L13 5.5L10.4453 6.44532L9.5 9L8.55468 6.44532L6 5.5L8.55468 4.55468L9.5 2Z" stroke="#000000" stroke-width="1.2" stroke-linejoin="round"></path><path d="M19 10L19.5402 11.4598L21 12L19.5402 12.5402L19 14L18.4598 12.5402L17 12L18.4598 11.4598L19 10Z" stroke="#000000" stroke-width="1.2" stroke-linejoin="round"></path></svg>

<svg xmlns="http://www.w3.org/2000/svg" width="33" height="33" fill="none" stroke-width="1.2" color="#000" viewBox="0 0 24 24"><path stroke="#000" stroke-linecap="round" stroke-linejoin="round" d="m3 21 10-10m5-5-2.5 2.5"/><path stroke="#000" stroke-linejoin="round" d="m9.5 2 .945 2.555L13 5.5l-2.555.945L9.5 9l-.945-2.555L6 5.5l2.555-.945L9.5 2ZM19 10l.54 1.46L21 12l-1.46.54L19 14l-.54-1.46L17 12l1.46-.54L19 10Z"/></svg>
